!!!OTL: Quartett in C für 2 Violinen, Viola und Violoncello, 3. Satz, KV 465/03
!!!system-decoration: [(s1,s2,s3,s4)]
**kern	**kern	**kern	**kern	**dynam	**kern	**kern	**kern	**kern	**kern	**kern	**kern	**kern	**kern	**kern	**kern	**kern
*part4	*part4	*part4	*part4	*part4	*part3	*part3	*part3	*part3	*part2	*part2	*part2	*part2	*part1	*part1	*part1	*part1
*staff16	*staff15	*staff14	*staff13	*	*staff12	*staff11	*staff10	*staff9	*staff8	*staff7	*staff6	*staff5	*staff4	*staff3	*staff2	*staff1
*I"Violoncello	*	*	*	*	*I"Viola	*	*	*	*I"Violino II	*	*	*	*I"Violino I	*	*	*
*clefF4	*	*clefC3	*clefG2	*clefG2
*M3/4	*	*M3/4	*M3/4	*M3/4
4r	.	4r	4r	(8eeL
.	.	.	.	8ffJ
=1	=1	=1	=1	=1
2.r	.	2.r	2.r	8ff#L
.	.	.	.	8gg
.	.	.	.	8aa
.	.	.	.	8gg
.	.	.	.	8ffn
.	.	.	.	8ddJ)
=2	=2	=2	=2	=2
4A	.	4c	4e	4cc
4A	.	4c	4e	4cc
4A	.	4c	4e	4cc
=3	=3	=3	=3	=3
4D	.	4c	4d	4ff
4D	.	4c	4d	4ff
4D	.	4c	4d	4ff
=4	=4	=4	=4	=4
4G	.	4B	4d	4f
4r	.	4r	4r	4r
8BBL	.	8BL	8BL	8BL
8GGJ	.	8GJ	8GJ	8GJ
=5	=5	=5	=5	=5
8CL	.	8cL	8cL	8cL
8GG	.	8G	8G	8G
8D	.	8d	8d	8d
8GG	.	8G	8G	8G
8E	.	8e	8e	8e
8GGJ	.	8GJ	8GJ	8GJ
=6	=6	=6	=6	=6
4F	.	4f	4f	4f
4r	.	4r	4r	4r
4r	.	4r	4f	8bL
.	.	.	.	8gJ
=7	=7	=7	=7	=7
2.r	.	2.r	4e	8ccL
.	.	.	.	8g
.	.	.	4d	8dd
.	.	.	.	8g
.	.	.	4c	8ee
.	.	.	.	8gJ
!!LO:LB
=8	=8	=8	=8	=8
2.r	.	2.r	(2B	(8ggL
.	.	.	.	8ff#
.	.	.	.	8ffn
.	.	.	.	8dd
.	.	.	4c)	8ee
.	.	.	.	8ccJ)
=9	=9	=9	=9	=9
2.r	.	2.r	(8eeL	4e
.	.	.	8dd#	.
.	.	.	8ddn	(4gg#
.	.	.	8b	.
.	.	.	8cc	4aa)
.	.	.	8aJ)	.
=10	=10	=10	=10	=10
2.r	.	(8dL	4r	4d
.	.	8c#	.	.
.	.	8cn	(8aL	(4ff#
.	.	8A	8ccJ)	.
.	.	8B	4b	4ggn)
.	.	8GJ)	.	.
=11	=11	=11	=11	=11
(8AL	.	4A	4r	4a
8G#	.	.	.	.
8Gn	.	4a	(8eeL	(4ccc#
8E	.	.	8ggJ)	.
8F#	.	4a	4ff#	4ddd)
8DJ)	.	.	.	.
=12	=12	=12	=12	=12
(2.FF#	.	(2.A	(2.c	[2.d
=13	=13	=13	=13	=13
4GG)	.	4G)	4B)	8dL]
.	.	.	.	8e'
4r	.	4r	4r	8f#'
.	.	.	.	8g'
4r	.	4r	4r	8a'
.	.	.	.	8b'J
!!LO:LB
=14	=14	=14	=14	=14
4E	.	4G	4g	8cc'L
.	.	.	.	8dd'
4r	.	4r	4r	8ee'
.	.	.	.	8ff#'
4r	.	4r	4r	8gg'
.	.	.	.	8aa'J
=15	=15	=15	=15	=15
2.r	.	4dd	(8ggL	(8bbL
.	.	.	8aa	8ccc
.	.	4dd	8aa#	8ccc#
.	.	.	8bb	8ddd
.	.	4dd	8aan	8cccn
.	.	.	8ff#J)	8aaJ)
=16	=16	=16	=16	=16
4r	.	4g	4gg	4gg
4r	.	4r	4r	4r
4BB	.	4G	4d	(8gL
.	.	.	.	8ddJ)
=17	=17	=17	=17	=17
4C	.	4G	4e	(8ddL
.	.	.	.	8cc)
4r	.	4r	4r	(8cc
.	.	.	.	8b)
4D	.	4F#	4c	(8b
.	.	.	.	8aJ)
=18	=18	=18	=18	=18
4E	.	4G	4B	(8aL
.	.	.	.	8g)
4r	.	4r	4r	(8g
.	.	.	.	8dd)
4BB	.	4G	4d	(8dd
.	.	.	.	8ccJ)
=19	=19	=19	=19	=19
4C	.	4G	4e	(8ccL
.	.	.	.	8b)
4r	.	4r	4r	(8b
.	.	.	.	8a)
4D	.	4F#	4c	(8a
.	.	.	.	8gJ)
=20	=20	=20	=20	=20
4GG	.	4G	4B	4g
4r	.	4r	4r	4r
!!LO:LB
=:|!	=:|!	=:|!	=:|!	=:|!
(8F#L	.	(8f#L	(8f#L	(8f#L
8GJ	.	8gJ	8gJ	8gJ
=21	=21	=21	=21	=21
8G#L	.	8g#L	8g#L	8g#L
8A	.	8a	8a	8a
8B-	.	8b-	8b-	8b-
8A	.	8a	8a	8a
8Gn	.	8gn	8gn	8gn
8EJ)	.	8eJ)	8eJ)	8eJ)
=22	=22	=22	=22	=22
4D	.	4d	4d	4d
4D	.	4d	4d	4d
4D	.	4d	4d	4d
=23	=23	=23	=23	=23
4G	.	4g	4g	4g
4G	.	4g	4g	4g
4G	.	4g	4g	4g
=24	=24	=24	=24	=24
[2.BB-	p	2.B-	2.B-	4B-
.	.	.	.	4r
.	.	.	.	(8cc#L
.	.	.	.	8ddJ
=25	=25	=25	=25	=25
(2.BB-y_	.	(2d	[2.dd	8ee-L
.	.	.	.	8een
.	.	.	.	8ff
.	.	.	.	8ff#
.	.	4e)	.	8gg
.	.	.	.	8gg#J)
=26	=26	=26	=26	=26
4AA)	.	4f	4dd]	4aa
4r	.	4f 4A	4dd	4aa
4r	.	4f 4A	4dd	4aa
=27	=27	=27	=27	=27
4r	.	4e 4A	4g	4cc#
4r	.	4e 4A	4g	4cc#y
(8F#L	.	4e 4A	4g	4cc#y
8GJ	.	.	.	.
=28	=28	=28	=28	=28
8G#L	.	[2.d	(2f#	[2.ccn
8A	.	.	.	.
8B-	.	.	.	.
8A	.	.	.	.
8F#	.	.	8aL	.
8DJ)	.	.	8f#yJ)	.
=29	=29	=29	=29	=29
4Gn	.	4d]	4g	(4cc_
4r	.	4r	4r	4b
(8EL	.	4r	4r	4g)
8FnJ	.	.	.	.
=30	=30	=30	=30	=30
8F#L	.	[2.c	(2e	[2.b-
8G	.	.	.	.
8A	.	.	.	.
8G	.	.	.	.
8E	.	.	8gL	.
8CJ)	.	.	8eJ)	.
=31	=31	=31	=31	=31
4Fn	.	4c]	4fn	(4b-y_
4r	.	4r	4r	4a)
4r	.	4r	4r	(8ffL
.	.	.	.	8ggJ
=32	=32	=32	=32	=32
2.r	.	(2f	(2cc	8gg#L
.	.	.	.	8aa
.	.	.	.	8bb-
.	.	.	.	8aa
.	.	4c#)	4b-)	8ggn
.	.	.	.	8eeJ)
=33	=33	=33	=33	=33
2.r	.	(2d	(2a	(8eeL
.	.	.	.	8ff
.	.	.	.	8gg
.	.	.	.	8ff
.	.	4e)	4g)	8ee
.	.	.	.	8cc#J)
=34	=34	=34	=34	=34
4r	.	(4f	2a	(8cc#L
.	.	.	.	8dd
(4F	.	4d)	.	8ee
.	.	.	.	8dd
4F#)	.	4d	(8AL	8ccn
.	.	.	8cJ)	8aJ)
!!LO:LB
=35	=35	=35	=35	=35
4G	.	4d	4Bn	[2.g
4GG	.	4r	4r	.
4r	.	(8BL	(8dL	.
.	.	8cJ	8e-J	.
=36	=36	=36	=36	=36
4r	.	8c#L	8enL	2.g_
.	.	8d	8f	.
(4BB	.	8e	8g	.
.	.	8d	8f	.
4C)	.	8cn	8e	.
.	.	8AJ)	8cJ)	.
=37	=37	=37	=37	=37
4GG	.	4B	4d	4g]
4G	.	4r	4r	4gg
4r	.	(8bL	(8ddL	4gg
.	.	8ccJ	8ee-J	.
=38	=38	=38	=38	=38
4r	.	8cc#L	8eenL	[2.gg
.	.	8dd	8ff	.
(4B	.	8ee	8gg	.
.	.	8dd	8ff	.
4c)	.	8ccn	8ee	.
.	.	8aJ)	8ccJ)	.
=39	=39	=39	=39	=39
4G	.	4b	4dd	(8ggL_
.	.	.	.	8ff#
4r	.	4r	4r	8gg
.	.	.	.	8ffn
4r	.	4r	(8ccL	8ee
.	.	.	8ddJ	8ffJ)
=40	=40	=40	=40	=40
2.r	.	4r	8dd#L	(8ff#L
.	.	.	8ee	8gg
.	.	4r	8ff	8aa
.	.	.	8ee	8gg
.	.	(8f#L	8ddn	8ffn
.	.	8gJ	8bJ)	8ddJ)
=41	=41	=41	=41	=41
4r	.	8g#L	4cc	4cc
.	.	8a	.	.
4r	.	8b-	4e	4cc
.	.	8a	.	.
(8BBL	.	8gn	4e	4cc
8CJ	.	8eJ)	.	.
!!LO:LB
=42	=42	=42	=42	=42
8C#L	.	4d	4A	4ff
8D	.	.	.	.
8E	.	4d	4A	4ff
8D	.	.	.	.
8Cn	.	4d	4A	4ff
8AAJ)	.	.	.	.
=43	=43	=43	=43	=43
4GG	.	4d	4B	4f
4r	.	4r	4r	4r
8BBL	.	8BL	8BL	8BL
8GGJ	.	8GJ	8GJ	8GJ
=44	=44	=44	=44	=44
8CL	.	8cL	8cL	8cL
8GG	.	8G	8G	8G
8D	.	8d	8d	8d
8GG	.	8G	8G	8G
8E	.	8e	8e	8e
8GGJ	.	8GJ	8GJ	8GJ
=45	=45	=45	=45	=45
4F	.	4f	4f	4f
4r	.	4r	4r	4r
4r	.	4r	4f	8bL
.	.	.	.	8gJ
=46	=46	=46	=46	=46
2.r	.	2.r	4e	8ccL
.	.	.	.	8g
.	.	.	4d	8dd
.	.	.	.	8g
.	.	.	4c	8ee
.	.	.	.	8gJ
=47	=47	=47	=47	=47
2.r	.	2.r	(2B	(8ggL
.	.	.	.	8ff#
.	.	.	.	8ffn
.	.	.	.	8dd
.	.	.	4c)	8ee
.	.	.	.	8ccJ)
=48	=48	=48	=48	=48
2.r	.	2.r	(8ccL	4c
.	.	.	8b	.
.	.	.	8b-	(4ee
.	.	.	8g	.
.	.	.	8a	4ff)
.	.	.	8fJ)	.
!!LO:LB
=49	=49	=49	=49	=49
2.r	.	(8aL	4r	4a
.	.	8g#	.	.
.	.	8gn	(8eeL	(4ccc#
.	.	8e	8ggJ)	.
.	.	8f#	4ff#	4ddd)
.	.	8dJ)	.	.
=50	=50	=50	=50	=50
(8GL	.	4G	4r	4g
8F#	.	.	.	.
8Fn	.	4g	(8ddL	(4bb
8D	.	.	8ffnJ)	.
8E	.	4g	4ee	4cccn)
8CJ)	.	.	.	.
=51	=51	=51	=51	=51
(2.FF	.	[2.A	[2.c	[2.d
=52	=52	=52	=52	=52
4FF#)	.	4A_	4c_	8dL]
.	.	.	.	8e'
4r	.	4r	4r	8f#'
.	.	.	.	8g'
4r	.	4r	4r	8a'
.	.	.	.	8b'J
=53	=53	=53	=53	=53
4GG	.	4c	4e	8cc'L
.	.	.	.	8dd'
4r	.	4r	4r	8ee'
.	.	.	.	8ffn'
4r	.	4r	4r	8gg'
.	.	.	.	8aa'J
=54	=54	=54	=54	=54
2.r	.	4g	(8eeL	(8ggL
.	.	.	8dd#	8ff#
.	.	4g	8ddn	8ffn
.	.	.	8cc#	8ee
.	.	4g	8dd	8ff
.	.	.	8bJ)	8ddJ)
=55	=55	=55	=55	=55
4r	.	4c	4ccn	4cc
4r	.	4r	4r	4r
4E	.	4c	4g	(8ccL
.	.	.	.	8ggJ)
=56	=56	=56	=56	=56
4F	.	4c	4a	(8ggL
.	.	.	.	8ff)
4r	.	4r	4r	(8ff
.	.	.	.	8ee)
4G	.	4B	4f	(8ee
.	.	.	.	8ddJ)
=57	=57	=57	=57	=57
4A	.	4c	4e	(8ddL
.	.	.	.	8cc)
4r	.	4r	4r	(8cc
.	.	.	.	8gg)
4E	.	4c	4g	(8gg
.	.	.	.	8ffJ)
=58	=58	=58	=58	=58
4F	.	4c	4a	(8ffL
.	.	.	.	8ee)
4r	.	4r	4r	(8ee
.	.	.	.	8dd)
4G	.	4B	4f	(8dd
.	.	.	.	8ccJ)
=59	=59	=59	=59	=59
4C	.	4c	4e	(2cc
4r	.	4r	4r	.
4EE	.	4c	(8cL	4gg)
.	.	.	8gJ)	.
=60	=60	=60	=60	=60
4FF	.	4A	(8gL	(2aa
.	.	.	8f)	.
4r	.	4r	(8f	.
.	.	.	8e)	.
4GG	.	4F	(8e	4bb)
.	.	.	8dJ)	.
=61	=61	=61	=61	=61
4AA	.	4E	(8dL	(2ccc
.	.	.	8c)	.
4r	.	4r	(8c	.
.	.	.	8g)	.
4EE	.	(8B-L	(8g	4gg)
.	.	8AJ)	8fJ)	.
=62	=62	=62	=62	=62
!!Error: measure 62, staff 1 is underfilled: adding token 8ryy at end of measure to complete its duration.
4FF	.	(8AL	(8fL	4aa
.	.	8G)	8e)	.
4DD	.	(8G	(8e	4aa
.	.	8F)	8d)	.
4GG	.	(8F	(8d	16aaL
.	.	.	.	16bbJ)
.	.	8EJ)	8cJ)	8ryy
=63	=63	=63	=63	=63
4CC	.	4E	4c	4ccc
4r	.	4r	4r	4r
=:|!	=:|!	=:|!	=:|!	=:|!
*-	*-	*-	*-	*-
